src/img/social-linkedin.svg

<svg xmlns="http://www.w3.org/2000/svg" width="36" height="36" viewBox="0 0 36 36">
  <path fill="#FFFFFF" fill-rule="evenodd" d="M18,36 C8.0588745,36 -1.21743675e-15,27.9411255 0,18 C1.21743675e-15,8.0588745 8.0588745,-6.08718376e-16 18,0 C27.9411255,6.08718376e-16 36,8.0588745 36,18 C36,27.9411255 27.9411255,36 18,36 Z M13.24,25.11 L13.24,14.5 L9.92,14.5 L9.92,25.11 L13.24,25.11 Z M11.5,13.18 C12.2031732,13.2534104 12.8867,12.9196384 13.2612107,12.3199857 C13.6357214,11.7203329 13.6357214,10.9596671 13.2612107,10.3600143 C12.8867,9.76036157 12.2031732,9.42658958 11.5,9.5 C10.9856567,9.45815757 10.477213,9.63304625 10.0974413,9.98243618 C9.71766963,10.3318261 9.50109026,10.8239587 9.5,11.34 C9.49492667,11.8580241 9.70965051,12.3539268 10.0908988,12.7046752 C10.4721471,13.0554236 10.9841935,13.2281496 11.5,13.18 Z M26.5,25.11 L26.5,19.21 C26.5,15.93 24.65,14.4 22.3,14.4 C20.9449203,14.2765084 19.6467178,14.972817 19,16.17 L19,14.5 L15.26,14.5 C15.31,15.39 15.26,25.11 15.26,25.11 L18.99,25.11 L18.99,19.37 C18.9618752,19.080854 18.9890247,18.7889972 19.07,18.51 C19.3242418,17.7362528 20.0455567,17.2123928 20.86,17.21 C22.16,17.21 22.74,18.19 22.74,19.62 L22.74,25.11 L26.5,25.11 Z"/>
</svg>

<svg xmlns="http://www.w3.org/2000/svg" width="36" height="36"><path fill="#FFF" fill-rule="evenodd" d="M18 36C8.059 36 0 27.941 0 18S8.059 0 18 0s18 8.059 18 18-8.059 18-18 18zm-4.76-10.89V14.5H9.92v10.61h3.32zM11.5 13.18a1.85 1.85 0 1 0 0-3.68 1.85 1.85 0 0 0-2 1.84 1.83 1.83 0 0 0 2 1.84zm15 11.93v-5.9c0-3.28-1.85-4.81-4.2-4.81a3.4 3.4 0 0 0-3.3 1.77V14.5h-3.74c.05.89 0 10.61 0 10.61h3.73v-5.74a2.29 2.29 0 0 1 .08-.86 1.89 1.89 0 0 1 1.79-1.3c1.3 0 1.88.98 1.88 2.41v5.49h3.76z"/></svg>
